X: 15
T: Bonaparte Crossing The Rhine (Eastwards)
M: 4/4
L: 1/8
K: D
Q:1/4=160
vF2 uG2 |  "D" A3 BA2 F2 | A4 (u.d2 u.e2) | f3 e f2 a2 | d6 (u.du.c) |
"G" B2 (Bc) d2 B2 | "D" A2 F2 D2 F2 | "A" E4 (E3 F) | E4 (u.F2 u.G2) | "D" A3 B A2 F2 |
A4 (u.d2 u.e2) | f3 e f2 a2 | d6 (u.du.c) | "G" B2 Bc d2 B2 | "D" A2 F2 "A" E2 (EF) |
"D" D4 (D3 E) |               D2 A2 d2 e2 || "D" f3 e f2 g2 | a6 A2 |
"G" B3 A B2 c2 | "D" d6 A2 | "G" B3 c d2 B2 | "D" A2 F2 D2 F2 | "A" E4 (E3 F) |
E4 (u.F2 u.G2) | "D" A3 B A2 F2 | A4 (u.d2 u.e2) | f3 e f2 a2 | d6 (u.du.c) |
"G" B2 (Bc) d2 B2 | "D" A2 F2 "A" E2 (EF) | "D" D4 (D3 E)                |  D4 |]

